packages/katcn/src/icons/svg/zoom.svg

<svg width="24" height="25" viewBox="0 0 24 25" fill="none" xmlns="http://www.w3.org/2000/svg">
<path d="M21.1592 18.0701L19.2229 16.1313C18.8153 15.7231 18.2038 15.7231 17.7962 16.1313C17.3885 16.5394 17.3885 17.1517 17.7962 17.5599L19.7325 19.4986C20.0382 19.8048 20.0382 20.315 19.7325 20.6211C19.4268 20.9272 18.9172 20.9272 18.6115 20.6211L15.5541 17.5599C15.758 17.3558 15.9618 17.2537 16.1656 17.0496C17.6943 15.519 18.6115 13.3762 18.6115 11.2333C18.6115 8.98843 17.7962 6.94761 16.1656 5.417C12.9045 2.15169 7.70701 2.15169 4.44586 5.417C1.18471 8.6823 1.18471 13.8864 4.44586 17.1517C5.97452 18.6823 8.11465 19.6007 10.2548 19.6007C11.4777 19.6007 12.7006 19.2945 13.7197 18.7843L17.0828 22.1517C17.5924 22.6619 18.4076 22.968 19.121 22.968C19.8344 22.968 20.5478 22.6619 21.1592 22.1517C22.2803 20.9272 22.2803 19.0905 21.1592 18.0701ZM5.87261 15.519C3.42675 13.0701 3.42675 9.09047 5.87261 6.74353C7.09554 5.51904 8.6242 4.90679 10.2548 4.90679C11.8854 4.90679 13.414 5.51904 14.6369 6.74353C15.8599 7.96802 16.4713 9.49863 16.4713 11.1313C16.4713 12.7639 15.8599 14.3966 14.6369 15.519C13.414 16.6415 11.8854 17.3558 10.2548 17.3558C8.6242 17.3558 6.99363 16.7435 5.87261 15.519Z" fill="black"/>
</svg>

<svg xmlns="http://www.w3.org/2000/svg" fill="none" viewBox="0 0 24 25"><path fill="#000" d="m21.16 18.07-1.937-1.939a.984.984 0 0 0-1.427 0 .987.987 0 0 0 0 1.429l1.937 1.939a.8.8 0 0 1 0 1.122.8.8 0 0 1-1.122 0l-3.057-3.061c.204-.204.408-.306.612-.51 1.528-1.531 2.445-3.674 2.445-5.817 0-2.245-.815-4.285-2.445-5.816a8.235 8.235 0 0 0-11.72 0 8.26 8.26 0 0 0 0 11.735c1.529 1.53 3.669 2.449 5.809 2.449a7.9 7.9 0 0 0 3.465-.817l3.363 3.368c.51.51 1.325.816 2.038.816s1.427-.306 2.038-.816c1.121-1.225 1.121-3.062 0-4.082M5.872 15.52c-2.446-2.449-2.446-6.429 0-8.775 1.223-1.225 2.751-1.837 4.382-1.837s3.159.612 4.382 1.837c1.223 1.224 1.834 2.755 1.834 4.387 0 1.633-.611 3.266-1.834 4.388-1.223 1.123-2.752 1.837-4.382 1.837s-3.261-.613-4.382-1.837"/></svg>
